X:1
T:Lad O'Beirne's (Gdor)
D:P.O'Brien, J.Gans, D.Sproule, Snug in the Blanket, track 5b
D:L.Nugent, Two for Two, track 11b
Z:Jerome Colburn
R:reel
M:4/4
L:1/4
K:Gdor
dc|BGGF DGBG|AFF2 AdcA|G3A BABc|dggf g2ag|
f3g fdcB|AFcF dFcF|dggf d3c|BGAF G2:|
df|g3f gbag|f3d cFAc|d3e f3d|c2AF CFAF|
DGGF GABc|AFcF dFcF|dggf d3c|BGAF G2:|
</abc>
